!!!COM: Schubert, Franz
!!!CNT: Deutscher
!!!TXO: Deutsch
!!!LYR: Ernst Schulze
!!!OTL: "Um Mitternacht"
!!!OPS: Op. 88
!!!ONM: No. 3
!!!ODT: 1825/
!!NB: Vocal melody only encoded.
!!NB: Original key: Bb major
**kern	**silbe
*clefG2	*
*k[f#]	*
*M2/4	*
*MM[Sehr massig]	*
=6	=6
4r	.
{8.cc	{Kei-
16b	-ne
=7	=7
8g	Stim-
8g	-me
8.b	ho2r'
16a	ich
=8	=8
8d	schal-
8d}	-len,}
{8d	{kei-
16e	-nen
16f#	|
=9	=9
8.g	Schritt
16b	auf
16b	dunk-
16a	|
16a	-ler
16g	|
=10	=10
4d}	Bahn,}
{8.cc	{selbst
16b	der
=11	=11
8g#	Him-
8g#	-mel
8.b	hat
16a	die
=12	=12
8d	scho2-
8d	-nen
16d	hel-
16ee	|
16dd	-len
16cc	|
=13	=13
8b	A2ug-
8b	lein
16a	zu-
16cc	|
16b	-ge-
16a	|
=14	=14
4g}	-tan,}
{8d	{hat
16e	die
16f#	|
=15	=15
8g	A2ug-
8g	-lein
16f#	zu-
16a	|
16dd	-ge-
16cc	|
=16	=16
4b}	-tan.}
4r	.
=17	=17
2r	.
=18	=18
2r	.
=19	=19
2r	.
=20	=20
4r	.
{8.dd	{Ich
16cc	nur
=21	=21
8a	wa-
8a	-che,
8.cc	su2-
16b	-sses
=22	=22
8g	Le-
8g}	-ben,}
{8g	{schau-
8g	-e
=23	=23
8g	seh-
8g	-nend
16b	in
16a	|
16g	die
16a	|
=24	=24
4b}	Nacht,}
{8.b	{bis
16b	dein
=25	=25
8b	Stern
8b	in
16cc	o2-
16b	|
16a	-der
16g	|
=26	=26
8g	Fer-
8cc	-ne
8.ee	lieb-
16dd	-lich
=27	=27
8a	leuch-
8a	-tend
8.dd	mir
16cc	er-
=28	=28
4b}	-wacht,}
{8.cc	{lieb-
16b	-lich
=29	=29
8b	leuch-
8f#	-tend
16g	mir
8b	|
16a	er-
=30	=30
4g}	-wacht.}
4r	.
=31	=31
2r	.
=32	=32
2r	.
=33	=33
2r	.
=34	=34
2r	.
=35	=35
2r	.
=36	=36
4r	.
{8.cc	{Ach
16b	nur
=37	=37
8g	ein-
8g	-mal,
8.b	nur
16a	ver-
=38	=38
aq	-stoh-
8d	|
8d	-len
8d	dein
16e	ge-
16f#	|
=39	=39
8.g	-lieb-
16b	-tes
16b	Bild
16a	|
16a	zu
16g	|
=40	=40
4d}	sehn,}
{8.cc	{wollt'
16b	ich
=41	=41
8g#	gern
8g#	im
8.b	Sturm
16a	und
=42	=42
8d	Wet-
8d	-ter
16d	bis
16ee	|
16dd	zum
16cc	|
=43	=43
8b	spa2-
8b	-ten
16a	Mor-
16cc	|
16b	-gen
16a	|
=44	=44
4g}	stehn,}
{8d	{bis
16e	zum
16f#	|
=45	=45
8g	spa2-
8g	-ten
16f#	Mor-
16a	|
16dd	-gen
16cc	|
=46	=46
4b}	stehn.}
4r	.
=47	=47
2r	.
=48	=48
2r	.
=49	=49
2r	.
=50	=50
4r	.
{8.dd	{Seh'
16cc	ich's
=51	=51
8a	nicht
8a	von
8.cc	fer-
16b	-ne
=52	=52
8g	leuch-
8g}	-ten?}
{8g	{naht
8g	es
=53	=53
8g	nicht
8g	schon
16b	nach
16a	|
16g	und
16a	|
=54	=54
4b}	nach?}
{8.b	{Ach,
16b	und
=55	=55
8b	Freund-
8b	-lich
16cc	ho2r'
16b	|
16a	ich's
16g	|
=56	=56
8g	flu2-
8cc}	-stern:}
{8.ee	{Sieh,
16dd	der
=57	=57
8a	Freund
8a	ist
8.dd	auch
16cc	noch
=58	=58
4b}	wach,}
{8.cc	{sieh,
16b	der
=59	=59
8b	Freund
8f#	ist
16g	auch
8b	|
16a	noch
=60	=60
4g}	wach!}
4r	.
=61	=61
2r	.
=62	=62
2r	.
=63	=63
2r	.
=64	=64
2r	.
=65	=65
2r	.
=66	=66
4r	.
{8.cc	{Hol-
16b	-der
=67	=67
8g	Nach-
8g	-hall,
8.b	wie-
16a	-ge
=68	=68
aq	freund-
8d	|
8d	-lich
8d	jetzt
16e	mein
16f#	|
=69	=69
8.g	Haupt
16b	in
16b	mil-
16a	|
16a	-de
16g	|
=70	=70
4d}	Ruh,}
{8.cc	{und
16b	noch
=71	=71
8g#	oft,
8g#	ihr
8.b	Tra2u-
16a	-me,
=72	=72
aq	lis-
8d	|
8d	-pelt
16d	ihr
16ee	|
16dd	ge-
16cc	|
=73	=73
8b	-lieb-
8b	-tes
16a	Wort
16cc	|
16b	mir
16a	|
=74	=74
4g}	zu,}
{8d	{lis-
16e	-pelt
16f#	|
=75	=75
8g	oft
8g	ihr
16f#	Wort
16a	|
16dd	mir
16cc	|
=76	=76
4b}	zu.}
4r	.
==	==
*-	*-